X: 121034
T: Little Thatched Cabin
S: "Treoir" 33/1 (< Paddy Reynolds)
R: jig
M: 6/8
L: 1/8
K: D
A|FDA, DFB|AFD EDB,|DFA def|gfg eag|
fdB AFD|EDB, DFA|dcd eag|fdc d2 :|
f/g/|afa geg|fdf ecA|dcd fed|cAc efg|
faf geg|fdf ecA|1 dcd eag|fdc d2 :|2\
dcd AFD|EDB, D2 ||
